X:1
T:Bury Me Not on the Lone Prairie
M:4/4
L:1/8
K:A
 E| E e2 e e2 c3/2 c/2| c3 c A2 E3/2 E/2| E- e2 e e2 c2| c3 c A2| E3/2 E/2|\
 E e2 e e2 c3/2 c/2| c3 c A3 E| E e2 ee d2 B| c3 c A3||
